fs/text_quote_20_filled.svg

<svg viewBox="0 0 20 20" fill="none" xmlns="http://www.w3.org/2000/svg" height="1em" width="1em">
  <path d="M9 6.5C9 5.11929 7.88071 4 6.5 4C5.11929 4 4 5.11929 4 6.5C4 7.88071 5.11929 9 6.5 9C6.98728 9 7.442 8.86059 7.82645 8.61948C7.63092 9.73653 7.28608 10.6355 6.87439 11.384C6.22505 12.5647 5.39792 13.395 4.64645 14.1464C4.45118 14.3417 4.45118 14.6583 4.64645 14.8536C4.84171 15.0488 5.15829 15.0488 5.35355 14.8536L5.36545 14.8417C6.11184 14.0953 7.02879 13.1784 7.75061 11.866C8.48082 10.5383 9 8.82976 9 6.5ZM14.8264 8.61948C14.442 8.86059 13.9873 9 13.5 9C12.1193 9 11 7.88071 11 6.5C11 5.11929 12.1193 4 13.5 4C14.8807 4 16 5.11929 16 6.5C16 8.82976 15.4808 10.5383 14.7506 11.866C14.0288 13.1784 13.1118 14.0953 12.3655 14.8417L12.3536 14.8536C12.1583 15.0488 11.8417 15.0488 11.6464 14.8536C11.4512 14.6583 11.4512 14.3417 11.6464 14.1464C12.3979 13.395 13.225 12.5647 13.8744 11.384C14.2861 10.6355 14.6309 9.73653 14.8264 8.61948Z" fill="#212121"/>
</svg>

<svg viewBox="0 0 20 20" fill="none" xmlns="http://www.w3.org/2000/svg" height="1em" width="1em">
  <path d="M9 6.5a2.5 2.5 0 1 0-1.174 2.12 8.802 8.802 0 0 1-.952 2.764c-.649 1.18-1.476 2.011-2.228 2.762a.5.5 0 0 0 .708.708l.011-.012c.747-.747 1.664-1.664 2.386-2.976C8.48 10.538 9 8.83 9 6.5Zm5.826 2.12A2.5 2.5 0 1 1 16 6.5c0 2.33-.52 4.038-1.25 5.366-.721 1.312-1.638 2.23-2.384 2.976l-.012.012a.5.5 0 0 1-.708-.708c.752-.751 1.579-1.581 2.228-2.762a8.8 8.8 0 0 0 .952-2.765Z" fill="#212121"/>
</svg>
